frontend/public/assets/material-icons/folder-public.svg

<svg xmlns="http://www.w3.org/2000/svg" viewBox="0 0 32 32">
  <path d="M13.84376,7.53645l-1.28749-1.0729A2,2,0,0,0,11.27591,6H4A2,2,0,0,0,2,8V24a2,2,0,0,0,2,2H28a2,2,0,0,0,2-2V10a2,2,0,0,0-2-2H15.12412A2,2,0,0,1,13.84376,7.53645Z" style="fill: #039be5"/>
  <path d="M22,10A10,10,0,1,0,32,20,10,10,0,0,0,22,10Zm6.91754,6H25.96a15.74864,15.74864,0,0,0-1.342-3.54028A8.03868,8.03868,0,0,1,28.91754,16ZM22,12a14.12829,14.12829,0,0,1,1.89,4H20.11A14.12829,14.12829,0,0,1,22,12Zm-2.61792.45972A15.74864,15.74864,0,0,0,18.04,16H15.08246A8.03868,8.03868,0,0,1,19.38208,12.45972ZM14.26331,22a7.72726,7.72726,0,0,1,0-4H17.67a15.44962,15.44962,0,0,0,0,4Zm.81915,2H18.04a15.74864,15.74864,0,0,0,1.342,3.54028A8.03868,8.03868,0,0,1,15.08246,24ZM22,28a14.12829,14.12829,0,0,1-1.89-4h3.78A14.12829,14.12829,0,0,1,22,28Zm2.31-6H19.69a13.41187,13.41187,0,0,1,0-4h4.62a13.41187,13.41187,0,0,1,0,4Zm.30792,5.54028A15.74864,15.74864,0,0,0,25.96,24h2.95758A8.03868,8.03868,0,0,1,24.61792,27.54028ZM29.73669,22H26.33a15.44962,15.44962,0,0,0,0-4h3.40673a7.72726,7.72726,0,0,1,0,4Z" style="fill: #b3e5fc"/>
</svg>

<svg xmlns="http://www.w3.org/2000/svg" viewBox="0 0 32 32"><path fill="#039be5" d="m13.844 7.536-1.288-1.072A2 2 0 0 0 11.276 6H4a2 2 0 0 0-2 2v16a2 2 0 0 0 2 2h24a2 2 0 0 0 2-2V10a2 2 0 0 0-2-2H15.124a2 2 0 0 1-1.28-.464"/><path fill="#b3e5fc" d="M22 10a10 10 0 1 0 10 10 10 10 0 0 0-10-10m6.918 6H25.96a15.8 15.8 0 0 0-1.342-3.54 8.04 8.04 0 0 1 4.3 3.54M22 12a14.1 14.1 0 0 1 1.89 4h-3.78A14.1 14.1 0 0 1 22 12m-2.618.46A15.8 15.8 0 0 0 18.04 16h-2.958a8.04 8.04 0 0 1 4.3-3.54M14.263 22a7.7 7.7 0 0 1 0-4h3.407a15.5 15.5 0 0 0 0 4Zm.82 2h2.957a15.8 15.8 0 0 0 1.342 3.54 8.04 8.04 0 0 1-4.3-3.54ZM22 28a14.1 14.1 0 0 1-1.89-4h3.78A14.1 14.1 0 0 1 22 28m2.31-6h-4.62a13.4 13.4 0 0 1 0-4h4.62a13.4 13.4 0 0 1 0 4m.308 5.54A15.8 15.8 0 0 0 25.96 24h2.958a8.04 8.04 0 0 1-4.3 3.54M29.737 22H26.33a15.5 15.5 0 0 0 0-4h3.407a7.7 7.7 0 0 1 0 4"/></svg>
